forward.svg

<svg width="136" height="72" viewBox="0 0 136 72" fill="none" xmlns="http://www.w3.org/2000/svg">
<path d="M126.017 33.806C126.017 30.9803 126.065 28.374 125.972 25.7741C125.952 25.2773 125.304 24.8322 125.059 24.3096C124.901 23.9774 124.836 23.2419 124.936 23.2032C126.236 22.6807 127.572 22.2549 129.078 21.7388C129.126 22.6387 129.181 23.1935 129.181 23.7516C129.188 31.1642 129.191 38.5768 129.181 45.9894C129.181 47.0248 129.217 47.9893 130.181 48.6667C130.365 48.7957 130.455 49.186 130.426 49.4344C130.413 49.5505 130.013 49.6698 129.775 49.6924C129.343 49.7344 128.904 49.7053 128.468 49.7053C127.062 49.7053 126.294 48.9344 126.165 47.3893C124.243 49.6731 121.814 50.3666 119.095 49.915C117.004 49.5698 115.321 48.4376 113.992 46.7603C111.221 43.2572 111.501 37.2446 114.608 34.1124C117.204 31.4932 122.036 30.3223 126.02 33.8092V33.8028L126.017 33.806ZM126.023 40.7057C126.023 39.7477 126.065 38.7864 126.017 37.8316C125.891 35.4124 124.036 33.3802 121.562 32.8964C119.275 32.4512 117.014 33.5802 116.066 35.8769C114.566 39.5025 114.982 43.0572 117.059 46.3345C118.372 48.4118 120.565 49.2247 122.546 48.6634C124.559 48.0957 125.827 46.3764 126.014 43.8314C126.091 42.7959 126.027 41.7444 126.03 40.7025L126.023 40.7057Z" fill="#282B26"/>
<path d="M92.1636 47.786C90.0314 50.3085 87.2638 50.3698 84.3962 49.715C81.5027 49.0537 80.0415 47.0506 80.1286 44.1475C80.206 41.6637 81.9898 39.809 84.7413 39.2445C87.0541 38.7735 89.2282 39.0412 91.2701 40.3057C91.383 40.2476 91.4959 40.1896 91.6088 40.1315C91.1249 38.3606 90.8765 36.4801 90.1088 34.8382C88.8089 32.0577 85.1607 32.0512 83.5769 34.6898C83.3091 35.135 83.0769 35.6059 82.8317 36.0672C82.4221 36.8413 81.6705 37.251 81.0157 36.7575C80.5802 36.4284 80.306 35.4704 80.4286 34.9027C80.7415 33.4608 81.9479 32.6834 83.2478 32.2383C88.1089 30.5706 93.7184 31.9286 94.5312 39.3477C94.7441 41.296 94.9022 43.2507 95.0957 45.199C95.2538 46.8087 95.2731 48.5054 97.4214 48.8957C95.9537 50.773 93.1055 50.1053 92.1604 47.7893V47.7828L92.1636 47.786ZM87.5993 40.2476C85.0252 40.2476 83.2865 41.8218 83.3123 44.1442C83.3349 46.8377 85.3348 48.944 87.838 48.9118C90.1088 48.8828 91.7765 47.1957 91.7959 44.9216C91.8152 41.954 90.2895 40.2509 87.6025 40.2476H87.5993Z" fill="#282B26"/>
<path d="M70.287 49.7214C69.9967 49.1537 69.6225 48.615 69.429 48.0183C68.1516 44.1055 66.9129 40.1831 65.5485 35.9123C64.9356 37.78 64.4163 39.3283 63.9163 40.8799C63.1163 43.3604 62.3712 45.8571 61.4906 48.3086C61.2938 48.857 60.7164 49.4763 60.181 49.6505C59.2584 49.9505 58.9552 49.0828 58.6778 48.386C57.0263 44.2281 55.4005 40.0606 53.7071 35.9188C53.3038 34.935 52.6587 34.0511 52.1491 33.1092C52.0168 32.8641 51.8329 32.5125 51.9168 32.3093C52.0007 32.1157 52.391 31.9545 52.6555 31.948C53.9619 31.9093 55.2715 31.9125 56.5811 31.948C56.8456 31.9545 57.2327 32.0932 57.3327 32.2899C57.4166 32.4512 57.2392 32.8963 57.0456 33.0318C56.2779 33.5608 56.3005 34.2027 56.5811 34.9801C57.9133 38.6509 59.2294 42.3282 60.6261 46.2151C60.8164 45.7668 60.9551 45.4926 61.0487 45.2055C62.3357 41.196 63.6421 37.1929 64.8775 33.1641C65.1453 32.2899 65.5936 31.9932 66.4484 31.9577C67.3549 31.919 67.5226 32.5254 67.7129 33.1609C68.6613 36.2768 69.8548 39.3445 70.4644 42.525C70.8999 44.7829 70.6838 47.1603 70.6838 49.5021C70.6612 49.7634 70.4386 49.8859 70.287 49.7182V49.7247V49.7214Z" fill="#282B26"/>
<path d="M28.3791 50.0342C23.0277 50.1407 18.8214 46.057 18.7182 40.654C18.6279 35.709 22.4793 31.7285 27.4436 31.6382C32.924 31.5414 37.1142 35.48 37.0852 40.941C37.0561 46.3828 33.4047 50.0407 28.3791 50.0342ZM33.9498 41.9991C33.8434 39.7411 33.3498 37.6347 32.1402 35.7606C30.8822 33.8123 29.1532 32.6188 26.6888 32.8995C24.3438 33.1672 22.9987 34.6478 22.4245 36.7606C21.3955 40.5475 22.1374 44.0667 24.7599 46.9956C27.621 50.189 31.9596 49.2246 33.324 45.1667C33.666 44.1538 33.7466 43.0539 33.9498 41.9958V41.9991Z" fill="#282B26"/>
<path d="M12.5249 32.067C14.0926 32.067 15.5345 32.0154 16.9635 32.1025C17.3473 32.1251 17.7441 32.367 18.0699 32.8315C17.8763 33.1508 17.3473 33.5379 16.9667 33.5605C15.5377 33.6476 14.0958 33.596 12.5153 33.596C12.483 34.0734 12.4378 34.4863 12.4378 34.8992C12.4314 38.6893 12.4507 42.4827 12.4249 46.2761C12.4185 47.2954 12.5507 48.1663 13.5604 48.7082C13.7926 48.834 13.8765 49.2405 14.0249 49.5179C13.7571 49.6243 13.4926 49.8211 13.2217 49.8243C11.6959 49.8534 10.167 49.8566 8.64445 49.8243C8.3864 49.8179 7.98642 49.6598 7.91868 49.4727C7.84771 49.2792 8.02513 48.8566 8.22189 48.7244C9.12185 48.1309 9.19282 47.2825 9.18637 46.3212C9.15734 42.1408 9.17346 37.9635 9.17346 33.5928C8.25092 33.5928 7.38644 33.6702 6.55099 33.5573C6.18972 33.5089 5.67361 33.1476 5.54459 32.8186C5.67684 32.4896 6.20585 32.1477 6.5768 32.096C7.38322 31.9864 8.21221 32.0606 9.05089 32.0606C9.17024 30.3606 9.12508 28.7381 9.42829 27.1866C10.2379 23.048 15.0539 21.1643 18.5021 23.6222C19.1279 24.0674 19.5827 24.8383 19.944 25.5479C20.3214 26.2963 20.1085 27.0317 19.2376 27.3511C18.4021 27.6575 17.6763 27.4446 17.2376 26.6285C17.0344 26.2511 16.8957 25.8286 16.7957 25.4092C16.5635 24.4415 15.9635 23.8706 14.9926 23.7899C13.9442 23.7029 13.0152 24.1222 12.683 25.1221C12.3378 26.1737 12.1411 27.3188 12.1217 28.4285C12.0991 29.5865 12.3669 30.7542 12.5249 32.0638V32.067Z" fill="#282B26"/>
<path d="M103.141 31.3674V34.5254C104.505 32.4932 106.202 31.3836 108.653 31.6481C110.405 31.8384 111.579 33.0867 111.308 34.6963C111.224 35.1963 110.743 35.9253 110.343 35.9995C109.847 36.0898 109.014 35.764 108.737 35.3479C108.115 34.4189 107.689 33.4093 106.292 33.648C104.882 33.8899 104.192 34.8931 103.921 36.1285C103.644 37.3898 103.531 38.7026 103.486 39.9993C103.418 42.0896 103.502 44.183 103.45 46.2732C103.428 47.2248 103.657 47.9603 104.473 48.5183C104.711 48.6796 104.808 49.057 104.969 49.3344C104.67 49.457 104.37 49.6796 104.063 49.6925C102.67 49.7312 101.27 49.7279 99.8794 49.6925C99.6084 49.686 99.2342 49.5505 99.1149 49.3505C99.0278 49.2054 99.2084 48.7409 99.3988 48.6151C100.302 48.0183 100.35 47.1603 100.341 46.2087C100.308 42.9831 100.308 39.7606 100.341 36.535C100.347 35.6511 100.176 34.9544 99.4471 34.3512C99.2117 34.1576 99.1633 33.2383 99.3052 33.1609C100.457 32.5351 101.676 32.0319 103.141 31.3674Z" fill="#282B26"/>
<path d="M45.243 49.2342C44.4624 49.5116 44.1947 49.6858 43.927 49.689C42.4851 49.7181 41.0464 49.7278 39.6078 49.6826C39.3239 49.6761 38.9756 49.4568 38.8078 49.2278C38.7336 49.1246 39.053 48.7568 39.1659 48.4988C39.4755 47.7827 40.0046 47.0698 40.0271 46.3408C40.1207 43.1151 40.0497 39.8862 40.0787 36.6606C40.0852 35.7316 39.94 34.9477 39.111 34.3897C38.2756 33.8252 38.5498 33.3155 39.2885 32.9446C40.1046 32.5382 40.9561 32.193 41.7851 31.8156C42.6044 31.4414 42.927 31.7705 42.927 32.5898C42.927 33.222 42.927 33.851 43.0302 34.5316C44.2366 32.4414 45.9366 31.4156 48.33 31.6543C50.0557 31.8285 51.2912 33.1156 51.0331 34.68C50.9493 35.1864 50.4783 35.9187 50.0686 36.0025C49.5783 36.1058 48.73 35.7832 48.4526 35.3703C47.8042 34.3961 47.3494 33.3575 45.8849 33.6768C44.3689 34.0091 43.6528 35.1735 43.5205 36.4832C43.2722 38.9895 43.2334 41.5249 43.2238 44.0474C43.2173 45.8795 42.5367 47.9698 45.243 49.2375V49.2342Z" fill="#282B26"/>
<path d="M72.9257 34.2126C72.9806 33.0933 73.845 32.2675 74.9644 32.2772C75.5353 32.2836 76.0256 32.4772 76.374 32.8352C76.7223 33.1933 76.8997 33.6933 76.8965 34.2706V34.5319H76.8772C76.7449 35.5222 75.9095 36.2867 74.9063 36.2512L72.9257 34.2158V34.2126ZM72.9257 34.2126C72.8999 34.7384 73.1354 35.2383 73.4967 35.6061ZM72.9257 34.2126L73.4967 35.6061ZM73.4967 35.6061C73.8579 35.9738 74.3611 36.2286 74.9063 36.248L73.4967 35.6061Z" fill="#1F36F9"/>
<path d="M74.974 36.5124C74.9482 36.5124 74.9223 36.5124 74.8965 36.5124L74.7901 36.5059C74.2482 36.4575 73.7127 36.2027 73.3095 35.793C72.9031 35.3769 72.6708 34.8479 72.6612 34.3221H72.6579L72.6644 34.206C72.7257 32.9448 73.7321 32.019 74.9675 32.0222C75.6159 32.0319 76.1675 32.2512 76.5642 32.6577C76.961 33.0641 77.1674 33.6254 77.161 34.277V34.7963H77.0965C76.861 35.8027 75.9933 36.5156 74.9772 36.5156L74.974 36.5124ZM73.1934 34.1157L75.0159 35.9866C75.8223 35.964 76.5029 35.3414 76.6126 34.4931L76.632 34.2673C76.6352 33.7576 76.4803 33.3254 76.1836 33.019C75.8868 32.7125 75.4643 32.548 74.9578 32.5416C74.0417 32.5448 73.2902 33.1867 73.1934 34.1157ZM73.6998 35.4124L73.745 35.435L73.6805 35.3705L73.6998 35.4156V35.4124Z" fill="#1F36F9"/>
<path d="M76.3353 41.7315C76.0288 41.4444 75.6192 41.2831 75.145 41.2444V41.2283H74.8772C73.7386 41.2509 72.8806 42.1153 72.9225 43.2411C72.9418 43.7701 73.2064 44.2604 73.5805 44.6152C73.9547 44.97 74.4611 45.212 74.9901 45.2023C75.5127 45.1958 75.9933 44.9346 76.3353 44.5539C76.6772 44.1765 76.8997 43.6637 76.8965 43.1217C76.8901 42.5508 76.6998 42.0669 76.3353 41.7283V41.7315Z" fill="#1F36F9"/>
<path d="M74.9707 45.4699C74.4159 45.4699 73.8482 45.2312 73.4031 44.8086C72.9515 44.3828 72.6805 43.8151 72.6612 43.2506C72.6386 42.6474 72.8483 42.0829 73.2515 41.6604C73.6643 41.2249 74.2417 40.9798 74.8772 40.9701L75.4094 40.9636V41.012C75.8449 41.0862 76.2255 41.2668 76.5158 41.5378C76.932 41.9216 77.1545 42.47 77.161 43.1216C77.1674 43.699 76.9384 44.2861 76.5352 44.7344C76.1191 45.1925 75.561 45.4602 74.9998 45.4699H74.9707ZM74.9836 41.4959H74.8837C74.3901 41.5055 73.9482 41.6926 73.6321 42.0249C73.3289 42.3442 73.1708 42.7732 73.1869 43.2345C73.2031 43.6603 73.4127 44.0957 73.7643 44.428C74.1159 44.7635 74.5643 44.9409 74.9901 44.9441C75.4062 44.9376 75.8288 44.7344 76.1481 44.3828C76.4642 44.0312 76.6449 43.5764 76.6384 43.128C76.632 42.6248 76.4675 42.2087 76.161 41.9216C75.8997 41.6797 75.5514 41.5378 75.1288 41.5055L74.9869 41.4926L74.9836 41.4959Z" fill="#1F36F9"/>
</svg>

<svg xmlns="http://www.w3.org/2000/svg" width="136" height="72" fill="none"><path fill="#282B26" d="M126.017 33.806c0-2.826.048-5.432-.045-8.032-.02-.497-.668-.942-.913-1.464-.158-.333-.223-1.068-.123-1.107 1.3-.522 2.636-.948 4.142-1.464.048.9.103 1.454.103 2.013.007 7.412.01 14.825 0 22.237 0 1.036.036 2 1 2.678.184.129.274.519.245.767-.013.117-.413.236-.651.258-.432.042-.871.013-1.307.013q-2.11.002-2.303-2.316c-1.922 2.284-4.351 2.978-7.07 2.526-2.091-.345-3.774-1.477-5.103-3.155-2.771-3.503-2.491-9.515.616-12.648 2.596-2.619 7.428-3.79 11.412-.303v-.006zm.006 6.9c0-.958.042-1.92-.006-2.874-.126-2.42-1.981-4.452-4.455-4.936-2.287-.445-4.548.684-5.496 2.98-1.5 3.627-1.084 7.181.993 10.459 1.313 2.077 3.506 2.89 5.487 2.328 2.013-.567 3.281-2.287 3.468-4.832.077-1.035.013-2.087.016-3.129zM92.164 47.786c-2.133 2.523-4.9 2.584-7.768 1.929-2.893-.661-4.355-2.664-4.267-5.568.077-2.483 1.86-4.338 4.612-4.902 2.313-.471 4.487-.204 6.53 1.06l.338-.173c-.484-1.771-.733-3.652-1.5-5.294-1.3-2.78-4.948-2.787-6.532-.148-.268.445-.5.916-.745 1.377-.41.774-1.161 1.184-1.816.69-.436-.329-.71-1.287-.587-1.854.313-1.442 1.519-2.22 2.819-2.665 4.86-1.667 10.47-.31 11.283 7.11.213 1.948.371 3.903.565 5.851.158 1.61.177 3.306 2.325 3.697-1.467 1.877-4.315 1.21-5.26-1.107v-.006zm-4.565-7.538c-2.574 0-4.312 1.574-4.287 3.896.023 2.694 2.023 4.8 4.526 4.768 2.27-.03 3.939-1.716 3.958-3.99.02-2.968-1.507-4.671-4.193-4.674zM70.287 49.721c-.29-.567-.665-1.106-.858-1.703-1.277-3.913-2.516-7.835-3.88-12.106-.613 1.868-1.133 3.416-1.633 4.968-.8 2.48-1.545 4.977-2.425 7.429-.197.548-.775 1.167-1.31 1.342-.923.3-1.226-.568-1.503-1.265-1.652-4.158-3.277-8.325-4.97-12.467-.404-.984-1.05-1.868-1.559-2.81-.132-.245-.316-.596-.232-.8.084-.193.474-.354.739-.361a69 69 0 0 1 3.925 0c.265.006.652.145.752.342.084.161-.094.606-.287.742-.768.529-.745 1.17-.465 1.948 1.332 3.67 2.648 7.348 4.045 11.235.19-.448.33-.722.423-1.01 1.287-4.009 2.593-8.012 3.828-12.04.268-.875.717-1.172 1.571-1.207.907-.039 1.075.567 1.265 1.203.948 3.116 2.142 6.183 2.751 9.364.436 2.258.22 4.635.22 6.977-.023.261-.245.384-.397.216v.007zM28.38 50.034c-5.352.107-9.559-3.977-9.662-9.38-.09-4.945 3.761-8.926 8.726-9.016 5.48-.097 9.67 3.842 9.641 9.303-.029 5.442-3.68 9.1-8.706 9.093M33.95 42c-.107-2.258-.6-4.364-1.81-6.238-1.258-1.949-2.987-3.142-5.451-2.861-2.345.267-3.69 1.748-4.265 3.86-1.029 3.788-.287 7.307 2.336 10.236 2.861 3.193 7.2 2.229 8.564-1.83.342-1.012.423-2.112.626-3.17zM12.525 32.067c1.568 0 3.01-.052 4.438.035.384.023.781.265 1.107.73-.194.319-.723.706-1.103.728-1.43.088-2.871.036-4.452.036-.032.477-.077.89-.077 1.303-.007 3.79.013 7.584-.013 11.377-.007 1.02.126 1.89 1.135 2.432.233.126.316.532.465.81-.268.106-.532.303-.803.306-1.526.03-3.055.033-4.578 0-.258-.006-.658-.164-.725-.351-.071-.194.106-.616.303-.749.9-.593.97-1.441.964-2.403-.029-4.18-.013-8.357-.013-12.728-.922 0-1.787.077-2.622-.036-.361-.048-.877-.41-1.006-.738.132-.33.66-.671 1.032-.723.806-.11 1.635-.035 2.474-.035.12-1.7.074-3.323.377-4.874.81-4.139 5.626-6.023 9.074-3.565.626.445 1.08 1.216 1.442 1.926.377.748.165 1.484-.706 1.803-.836.306-1.562.094-2-.723a5 5 0 0 1-.442-1.219c-.232-.967-.832-1.538-1.803-1.62-1.049-.086-1.978.333-2.31 1.333a11.4 11.4 0 0 0-.561 3.307c-.023 1.158.245 2.325.403 3.635zM103.141 31.367v3.158c1.364-2.032 3.061-3.141 5.512-2.877 1.752.19 2.926 1.439 2.655 3.048-.084.5-.565 1.23-.965 1.303-.496.09-1.329-.235-1.606-.651-.622-.93-1.048-1.939-2.445-1.7-1.41.242-2.1 1.245-2.371 2.48-.277 1.262-.39 2.575-.435 3.871-.068 2.09.016 4.184-.036 6.274-.022.952.207 1.687 1.023 2.245.238.162.335.539.496.816-.299.123-.599.346-.906.358a79 79 0 0 1-4.184 0c-.27-.006-.645-.142-.764-.342-.087-.145.093-.61.284-.735.903-.597.951-1.455.942-2.406a473 473 0 0 1 0-9.674c.006-.884-.165-1.58-.894-2.184-.235-.193-.284-1.113-.142-1.19 1.152-.626 2.371-1.13 3.836-1.794M45.243 49.234c-.78.278-1.048.452-1.316.455-1.442.03-2.88.039-4.32-.006-.283-.007-.631-.226-.8-.455-.073-.103.246-.471.359-.73.31-.715.839-1.428.861-2.157.094-3.226.023-6.455.052-9.68.006-.93-.139-1.713-.968-2.271-.835-.565-.561-1.075.178-1.445.816-.407 1.667-.752 2.496-1.13.82-.374 1.142-.045 1.142.775 0 .632 0 1.261.103 1.942 1.207-2.09 2.907-3.116 5.3-2.878 1.726.174 2.961 1.462 2.703 3.026-.084.506-.555 1.239-.964 1.322-.49.104-1.339-.219-1.616-.632-.649-.974-1.104-2.012-2.568-1.693-1.516.332-2.232 1.496-2.364 2.806-.249 2.507-.288 5.042-.297 7.564-.007 1.833-.687 3.923 2.019 5.19z"/><path fill="#1F36F9" d="M72.926 34.213c.055-1.12.919-1.946 2.038-1.936.571.007 1.062.2 1.41.558s.526.858.523 1.436v.26h-.02c-.132.991-.968 1.756-1.97 1.72l-1.981-2.035zm0 0c-.026.525.21 1.025.57 1.393Zm0 0 .57 1.393Zm.57 1.393c.362.368.865.623 1.41.642z"/><path fill="#1F36F9" d="M74.974 36.512h-.078l-.106-.006a2.4 2.4 0 0 1-1.48-.713c-.407-.416-.64-.945-.649-1.47h-.003l.006-.117a2.27 2.27 0 0 1 2.303-2.184c.649.01 1.2.23 1.597.636s.603.967.597 1.619v.52h-.064c-.236 1.006-1.104 1.719-2.12 1.719zm-1.78-2.396 1.822 1.87c.806-.022 1.487-.645 1.597-1.493l.019-.226c.003-.51-.152-.942-.448-1.248s-.72-.471-1.226-.477c-.916.003-1.668.645-1.765 1.574m.506 1.296.045.023-.065-.065.02.046zM76.335 41.732c-.306-.288-.716-.449-1.19-.488v-.016h-.268c-1.138.023-1.996.887-1.954 2.013.019.53.283 1.02.657 1.374s.881.597 1.41.587c.523-.006 1.003-.267 1.345-.648a2.14 2.14 0 0 0 .562-1.432c-.007-.571-.197-1.055-.562-1.394z"/><path fill="#1F36F9" d="M74.97 45.47c-.554 0-1.122-.239-1.567-.661-.452-.426-.723-.994-.742-1.558a2.16 2.16 0 0 1 .59-1.59 2.26 2.26 0 0 1 1.626-.69l.532-.007v.048c.436.074.816.255 1.107.526.416.384.638.932.645 1.584a2.4 2.4 0 0 1-.626 1.612c-.416.459-.974.726-1.535.736zm.014-3.974h-.1c-.494.01-.936.197-1.252.529-.303.32-.461.748-.445 1.21.016.425.226.86.577 1.193.352.336.8.513 1.226.516.416-.006.839-.21 1.158-.561.316-.352.497-.807.49-1.255-.006-.503-.17-.92-.477-1.206-.261-.242-.61-.384-1.032-.416l-.142-.013z"/></svg>
